X: 6
T: Patrick's Night
R: reel
M: 4/4
L: 1/8
K: Gmaj
|:dc|BG ~G2 AGED|GABd egge|dB ~B2 gedB|A2 GB AGEG|
BG ~G2 AGED|GABd egge|dB ~B2 gedB|AGAB G2:|
|:Bd|g2 fa gedB|GB ~B2 GABd|g2 fa gedg|eA B/c/d eaaf|
gbaf gfge|dB ~B2 gBdB|GA B/c/d gedB|AGAB G2:|

composer: Paddy O'Brien
